!!!ONB: MCCC : IJH0425_05 : Extracted Monophonic Melody
!!!COM: Haydn, Joseph
!!!OPR: String Quartet in D major
!!!OMV: 5
!!!SCT: Hob.III:3 ; Op.1 No.3
!!!ODT: 1757///
**kern
*thru
*k[f#c#]
*D:
*clefF
*M3/8
4dd
32ff#
32ee
32ff#
32gg
=1
8aa
8ff#
8dd
=2
8a
8f#
8d
=3
8b
8g
8e
=4
8A
8gg
8gg
=5
4ff#
32d
32e
32f#
32g
=6
8a
8f#
8d
=7
8b
8g
8e
=8
8gg
16ff#
16ee
16dd
16cc#
=9
4dd
8ff#
=10
4d
8c#
=11
4B
8dd
=12
4B
8A
=13
8G#
8r
8bb
=14
4e
8dd
=15
4cc#
8r
=16
4.r
=17
8ddd
8ccc#
8r
=18
4.r
=19
16ff#
16ee
16a
32b
32cc#
32dd
32ee
32ff#
32gg#
=20
8aa
8ee
8cc#
=21
8ee
8cc#
8a
=22
8e
8cc#
8b
=23
4a
8aa
=24
4.dd#
=25
4ee
8gg
=26
4.cc#
=27
4dd
8a
=28
8b
8g
8e
=29
8cc#
8a
8f#
=30
8dd
8b
8g
=31
8ee
8cc#
8g
=32
8f#
16dd
16cc#
16dd
16ee
=33
8ff#
8aa
8ff#
=34
8ee
16bb
16gg
16ff#
16ee
=35
4cc#
8r
=36
4dd
32ff#
32ee
32ff#
32gg
=37
8aa
8ff#
8dd
=38
8a
8f#
8d
=39
8b
8g
8e
=40
8A
8gg
8gg
=41
4ff#
32d
32e
32f#
32g
=42
8a
8f#
8d
=43
8b
8g
8e
=44
8gg
16ff#
16ee
16dd
16cc#
=45
4dd
8aa
=46
8bb
16gg
16aa
16bb
16ccc#
=47
4ddd
8f#
=48
8g
8e
8a
=49
4d
8r
=50
4.ff#
=51
4.ff#
=52
4.ff#
=53
4.ff#[
=54
4ff#]
8bb
=55
8gg
8ff#
8ee
=56
8dd
8dd
8cc#
=57
4.b
=58
4.b
=59
4.b
=60
4.b[
=61
4b]
8bb
=62
8b
8b
8a
=63
8g
8e
8aa
=64
8a
8a
8g
=65
8f#
8d
8dd
=66
4ff#
8dd
=67
4gg
8bb
=68
8aa
8f#
8e
=69
8d
8r
8ff#
=70
8bb
8r
8dd#
=71
8ee
8r
8bb
=72
8aa
8r
8cc#
=73
8dd
8r
8ff#
=74
8ee
8r
8dd
=75
8cc#
8r
8f#
=76
8d
8c#
8B
=77
4f#
8ff#
=78
4.ee
=79
4.ee
=80
4.ee
=81
4.ee[
=82
8ee]
8ccc#
8ee
=83
8dd
8b
8d
=84
8e
8c#
8f#
=85
4g
8bb
=86
8b
8b
8a
=87
8g
8e
8gg
=88
8ff#
8b
8a#
=89
4b
8bb
=90
8b
8b
8a
=91
8g
8e
8gg
=92
8ff#
8b
8a#
=93
4b
8b
=94
8dd
8b
8f#
=95
4g
8ee
=96
8A
8g
8g
=97
4f#
8a
=98
4dd
32ff#
32ee
32ff#
32gg
=99
8aa
8ff#
8dd
=100
8a
8f#
8d
=101
8b
8g
8e
=102
8A
8gg
8gg
=103
4ff#
32d
32e
32f#
32g
=104
8a
8f#
8d
=105
8b
8g
8e
=106
8gg
16ff#
16ee
16dd
16cc#
=107
4dd
8ff#
=108
4d
8c#
=109
4B
8dd
=110
4B
8A
=111
4G#
8bb
=112
4e
8dd
=113
4cc#
8r
=114
4.r
=115
8ddd
8ccc#
8r
=116
4.r
=117
16ff#
16ee
16a
32b
32cc#
32dd
32ee
32ff#
32gg#
=118
8aa
8ee
8cc#
=119
8ee
8cc#
8a
=120
8e
8cc#
8b
=121
4a
8aa
=122
4.dd#
=123
4ee
8gg
=124
4.cc#
=125
4dd
8a
=126
8b
8g
8e
=127
8cc#
8a
8f#
=128
8dd
8b
8g
=129
8ee
8cc#
8g
=130
8f#
16dd
16cc#
16dd
16ee
=131
8ff#
8aa
8ff#
=132
8ee
16bb
16gg
16ff#
16ee
=133
4cc#
8r
=134
4dd
32ff#
32ee
32ff#
32gg
=135
8aa
8ff#
8dd
=136
8a
8f#
8d
=137
8b
8g
8e
=138
8A
8gg
8gg
=139
4ff#
32d
32e
32f#
32g
=140
8a
8f#
8d
=141
8b
8g
8e
=142
8gg
16ff#
16ee
16dd
16cc#
=143
4dd
8aa
=144
8bb
16gg
16aa
16bb
16ccc#
=145
4ddd
8f#
=146
8g
8e
8a
=147
4d
8r
==
*-
